X: 128
T: Whiskey Before Breakfast
M: C|
R: reel
K: D
|: "D"A,B,DE D2FG | AFBF A2EF | "G"G2BG "D"F2AF |1,3 "A7"EDEF EDB,A, :|2,4 "A"EDEF "D"D4 :|
|: "D"A2d2 d2Bc | dcdA BAFA | "Em"e4 e2ef | gfed "A7"cABc |
|  "D"d2fd "A"c2ec | "G"BABd "D"BAFD | "G"G2BG "D"F2AF | "A7"EDEF "D"D2 z2 :|

%%sep 1 1 500

